cg/captions.svg

<svg viewBox="0 0 24 24" fill="none" xmlns="http://www.w3.org/2000/svg" height="1em" width="1em">
  <path d="M11 8V10H8V14H11V16H6V8H11Z" fill="currentColor"/>
  <path d="M18 8V10H15V14H18V16H13V8H18Z" fill="currentColor"/>
  <path fill-rule="evenodd" clip-rule="evenodd" d="M2 5C2 4.44772 2.44772 4 3 4H21C21.5523 4 22 4.44772 22 5V19C22 19.5523 21.5523 20 21 20H3C2.44772 20 2 19.5523 2 19V5ZM4 18V6H20V18H4Z" fill="currentColor"/>
</svg>

<svg viewBox="0 0 24 24" fill="none" xmlns="http://www.w3.org/2000/svg" height="1em" width="1em">
  <path d="M11 8v2H8v4h3v2H6V8h5Zm7 0v2h-3v4h3v2h-5V8h5Z" fill="currentColor"/>
  <path fill-rule="evenodd" clip-rule="evenodd" d="M2 5a1 1 0 0 1 1-1h18a1 1 0 0 1 1 1v14a1 1 0 0 1-1 1H3a1 1 0 0 1-1-1V5Zm2 13V6h16v12H4Z" fill="currentColor"/>
</svg>
